dist/flags/l/807.svg

<svg width="32" height="24" viewBox="0 0 32 24" fill="none" xmlns="http://www.w3.org/2000/svg">
<mask id="mask0" mask-type="alpha" maskUnits="userSpaceOnUse" x="0" y="0" width="32" height="24">
<rect width="32" height="24" fill="white"/>
</mask>
<g mask="url(#mask0)">
<path fill-rule="evenodd" clip-rule="evenodd" d="M0 0V24H32V0H0Z" fill="#F50100"/>
<mask id="mask1" mask-type="alpha" maskUnits="userSpaceOnUse" x="0" y="0" width="32" height="24">
<path fill-rule="evenodd" clip-rule="evenodd" d="M0 0V24H32V0H0Z" fill="white"/>
</mask>
<g mask="url(#mask1)">
<path fill-rule="evenodd" clip-rule="evenodd" d="M0 -0.0419922V4.04193L14 9.99317L3.25523 -0.0419922H0ZM16 12L19 -3.20263e-05H13L16 12ZM16 12L13 24H19L16 12ZM0 19.9512V24.0351H3.25523L14 14L0 19.9512ZM32 4.0663V-0.0176155L28.7448 -0.0176155L18 10.0176L32 4.0663ZM32 24.0595V19.9756L18 14.0243L28.7448 24.0595H32ZM32 8.99997L20 12L32 15V8.99997ZM12 12L0 8.99997V15L12 12Z" fill="#FFD018"/>
<path d="M16 17C18.7614 17 21 14.7614 21 12C21 9.23858 18.7614 7 16 7C13.2386 7 11 9.23858 11 12C11 14.7614 13.2386 17 16 17Z" fill="#FFD018" stroke="#F50100" stroke-width="2"/>
</g>
</g>
</svg>

<svg width="32" height="24" fill="none" xmlns="http://www.w3.org/2000/svg">
  <mask id="a" maskUnits="userSpaceOnUse" x="0" y="0" width="32" height="24">
    <path fill="#fff" d="M0 0h32v24H0z"/>
  </mask>
  <g mask="url(#a)">
    <path fill-rule="evenodd" clip-rule="evenodd" d="M0 0v24h32V0H0z" fill="#F50100"/>
    <mask id="b" maskUnits="userSpaceOnUse" x="0" y="0" width="32" height="24">
      <path fill-rule="evenodd" clip-rule="evenodd" d="M0 0v24h32V0H0z" fill="#fff"/>
    </mask>
    <g mask="url(#b)" fill="#FFD018">
      <path fill-rule="evenodd" clip-rule="evenodd" d="M0-.042v4.084l14 5.951L3.255-.042H0zM16 12l3-12h-6l3 12zm0 0l-3 12h6l-3-12zM0 19.951v4.084h3.255L14 14 0 19.951zM32 4.066V-.018h-3.255L18 10.018l14-5.952zm0 19.994v-4.084l-14-5.952L28.745 24.06H32zM32 9l-12 3 12 3V9zm-20 3L0 9v6l12-3z"/>
      <path d="M16 17a5 5 0 100-10 5 5 0 000 10z" stroke="#F50100" stroke-width="2"/>
    </g>
  </g>
</svg>
